X:1
T:Title
%%score { ( 1 3 ) | ( 2 4 ) }
L:1/8
M:6/8
K:G
V:1 treble nm="Grand Piano"
V:3 treble 
V:2 treble 
V:4 treble 
V:1
 z3 z2[Q:1/4=100] G/B/ | ded BAG | B3 G2 D | GGG FFG |[M:5/8] [FA]-[FA]- [FA]3 |[M:1/8] G/B/ | %6
[M:3/4] de dB [FA]G | [Ac]3 [Ge]2 c | B[FA] [EG]F [EG][FA] |[M:5/8] G-G- G3 |[M:1/8] G | %11
[M:3/4] cc .c2 z G, | G,2 cB BB | [DB]6 | d<d Bd/d/- dB |[M:5/8] [DFA]-[DFA]- [DFA]3 |[M:1/8] D | %17
[M:3/4] z2 z B3- | B2 z2 z2 | [Fd]6 | [Bd]2 ed/B/- B[FA] |[M:5/8] G-G- G3 |] %22
V:2
 z3 z2 [G,B,D] | [G,B,G][G,B,G][G,B,G] [G,B,G][G,CF][G,B,] | [G,DG]3[K:bass] [G,B,E]2 [G,B,] | %3
 [E,B,E][E,B,E][E,B,E] [C,A,][C,A,][E,B,E] |[M:5/8] [D,D]-[D,D]- [D,D]3 | %5
[M:1/8][K:treble] [G,B,D] |[M:3/4] [G,B,G][G,B,G] [G,B,G][G,B,G][K:bass] [D,C][B,,B,] | %7
 [C,A,]3 [C,C]2[K:treble] [G,G] | [G,B,G][K:bass][D,D] [D,D][D,D] [D,D][D,D] | %9
[M:5/8] [G,B,D]-[G,B,D]- [G,B,D]3 |[M:1/8] z |[M:3/4] EE E[C,G,] G,C, | C,2[K:treble] ED DD | %13
 G,G, G, G,2 [G,B,D] | [G,DG]<[G,DG] [G,DG][G,DG]/[G,DG]/- [G,DG][G,DG] | %15
[M:5/8][K:bass] D,-D,- D,3 |[M:1/8] B, |[M:3/4] z2[K:treble] z G3- | G2 z2 z2 | %19
 [D,A,]D, D, D,2[K:treble] [G,DG] | [G,D]2 [G,B,G][G,B,G]/[G,B,G]/- [G,B,G][K:bass][D,D] | %21
[M:5/8] [G,B,]-[G,B,]- [G,B,]3 |] %22
V:3
 x6 | x6 | x6 | x6 |[M:5/8] x5 |[M:1/8] x |[M:3/4] x6 | x6 | x6 |[M:5/8] x5 |[M:1/8] x | %11
[M:3/4] z2 z [Ec]3- | [Ec]2 z2 z2 | B,B, B, B,2 B | x6 |[M:5/8] x5 |[M:1/8] x |[M:3/4] GG .G2 DD | %18
 D2 GG GB | z A, A, A,2 B | x6 |[M:5/8] x5 |] %22
V:4
 x6 | x6 | x3[K:bass] x3 | x6 |[M:5/8] x5 |[M:1/8][K:treble] x |[M:3/4] x4[K:bass] x2 | %7
 x5[K:treble] x | x[K:bass] x5 |[M:5/8] x5 |[M:1/8] x |[M:3/4] x6 | x2[K:treble] x4 | x6 | x6 | %15
[M:5/8][K:bass] x5 |[M:1/8] x |[M:3/4] [B,D][K:treble][B,D] [B,D][G,D] G,G, | G,2 DD DG | %19
 x5[K:treble] x | x5[K:bass] x |[M:5/8] x5 |] %22

